X:414
T:Soldier's Joy
C:Harmony a 3rd above melody
N:Arranged by Mike Stangeland
R:bluegrass
L:1/8
Q:1/4=222
M:4/4
K:D
z6 dB |: "D"AF DF AF DF | AF AB d2 dB | AF DF AF DF | "A"GF EF E2 FG | "D"AF DF AF DF | 
AF AB d2 de | "D"fa fd "A"eg ec |1 d"D"c de d2 dB :|2 d"D"c de d2 ag |: "D"fe fg a2 gf | 
"G"ed ef g2 ag | "D"fe fg a2 gf | "A"ed cB A2 ag | "D"fe fg a2 gf | "G"ed ef g2 ag | 
"D"fa fd "A"eg ec |1 d"D"c de d2 ag :|2 d"D"c de d2 dB |: "D"AG F"A Variation"E DE FG | 
AF AB d2 dB | AG FE DE FG | "A"AF EF E2 dB | "D"AG FE DE FG | AF AB d2 de | "D"fa fd "A"eg ec | 
|1 d"D"c de d2 dB :|2 d"D"c de d2 AG |: "D"FE FG A2 GF | "G"ED EF G2 AG | "D"FE FG A2 GF | 
"A"ED CB, A,2 AG | "D"FE FG A2 GF | "G"ED EF G2 AG | "D"FA FD "A"EG EC |1 D"D"C DE D2 AG :|2 D"D"C DE D4 | 


